!!!!SEGMENT: pl-kk--kk-i-11--002-002_anonim--pro-organo-missa-et-in-terra.krn
!!!cenid: 16xx:1239
!!!COM: Anonim
!!!COM-rismid: pe30004985
!!!CDT:
!!!CNT:
!!!OPR: Pro organo Missa
!!!OTL: Et in terra
!!!OMV: 002
!!!PDT:
!!!AGN: Sacred
!!!SMS-siglum: PL-Kk
!!!SMS-shelfmark: Kk.I.11
!!!SMS-shelfwork: 002-002 M
!!!SMS-variant:
!!!SMS-altvar:
!!!NIFC-rismid: 1001154133
!!!URL-scan: http://repozytorium.nifc.pl/skany/pl-kk-nut--i-11
!!!ONB-nifc: UWAGA: części Mszy: 1. Kyrie, 2. Et in terra, 3. Patrem. Skany 0009-0010.
!!!key:
**kern	**fba
*Iorgan	*
*I"[Organo]	*
*I'org	*
*clefF4	*
*k[]	*
*C:	*
*M2/1	*
*all\right	*
*2\right	*
=1-	=1-
!LO:TX:b:t=Et in terra	!
1G	.
2A\	.
2F\	.
=2-	=2-
2E\	.
1C	.
1G\	.
=3-	=3-
.	.
2F\	.
1A	.
=4-	=4-
1D	.
2.G\	.
4F\	.
=5-	=5-
4E\	.
4D/	.
1C	.
2BB/	.
=6-	=6-
1D	.
2GG/	.
2C/	.
=7-	=7-
2AA/	.
2E\	.
2AA/	.
2E\	.
=8-	=8-
!LO:SIC:v:t=custos F	!
!!LO:LB:g=original
2AA/	.
4FF/	.
4GG/	.
2C/	.
4AA/	.
4BB/	.
=9-	=9-
4C/	.
4AA/	.
4FF/	.
4GG/	.
4C/	.
4AA/	.
4FF/	.
4GG/	.
=10-	=10-
4C/	.
4F\	.
4D/	.
4E\	.
4C/	.
4D/	.
2GG/	.
=11-	=11-
*M3/1	*
0.GG	.
=12-	=12-
0.C	.
=13-	=13-
1.AA	.
2GG#X/	.
1AA	.
=14-	=14-
0.E	.
=15-	=15-
!LO:SIC:v:t=custos F	!
!!LO:LB:g=original
0.C	.
=16-	=16-
0.FF	.
=17-	=17-
1.C	.
2BB/	.
1C	.
=18-	=18-
0.GG	.
=19-	=19-
0.GG	.
=20-	=20-
0.D	.
=21-	=21-
0.AA	.
=22-	=22-
0.E	.
=23-	=23-
0.D	.
=24-	=24-
0A	.
1E	.
=25-	=25-
*col	*
1F	.
0G	.
*Xcol	*
=26-	=26-
0.C	.
=27-	=27-
*M2/1	*
*met(c|)	*
2C/	.
2G\	.
4.F#X\	.
8D/	.
2E\	.
=28-	=28-
2D/	.
!!LO:PB:g=original
!LO:SIC:v:t=custos B	!
2AA/	.
!LO:TX:t=w Xięgach nowych ięzycznych ktrzech [?] Proboſcz MM Sprawil y\n napisał	!
2BB/	.
2AA/	.
=29-	=29-
4.G\	.
8E\	.
2F\	.
4E\	.
4C/	.
2D/	.
=30-	=30-
2C/	.
4.BB/	.
8GG/	.
2AA/	.
2GG#X/	.
=31-	=31-
4D/	.
4C/	.
2D/	.
2GG/	.
4G\	.
4E\	.
=32-	=32-
2A\	.
4F\	.
2D/	.
4C/	.
2BB/	.
=33-	=33-
2AA/	.
*clefC3	*
*^	*
2.e/	4A\	.
!	!LO:TX:a:t=P:problem:# above	!
.	4G#X\	.
.	4A\	.
4d/	4B\	.
4e/	4c\	.
!LO:SIC:v:t=custos C	!	!
!LO:TX:a:t=P:problem:# above	!	!
4f#X/	4A\	.
!!LO:LB:g=original
=34-	=34-	=34-
4g/	4B\	.
4e/	4c#X\	.
8f/L	4.d\	.
8g/J	.	.
2a/	.	.
.	8c#\	.
.	2B\	.
!LO:TX:t=P:problem:kreska pseudotaktowa	!	!
4g/	.	.
*v	*v	*
*clefF4	*
2AA/	.
=35-	=35-
2E\	.
!LO:N:acc=#	!
2BnX\	.
4G\	.
4F#X\	.
4E\	.
4D#X\	.
=36-	=36-
4E\	.
4C/	.
4AA/	.
4BB/	.
1E	.
=37-	=37-
2.AA/	.
4F\	.
2.D/	.
!LO:TX:b:t=P:problem:# below	!
4C#X/	.
=38-	=38-
4D/	.
4E\	.
4F\	.
4G\	.
2.C/	.
4GG/	.
=39-	=39-
1AA	.
!LO:SIC:v:t=custos D	!
1D	.
!!LO:LB:g=original
=40	=40
1D	.
1GG	.
=41-	=41-
2D/	.
2BB/	.
1C	.
=42-	=42-
1D	.
1GG	.
=43-	=43-
1C	.
2FF/	.
4F\	.
4E\	.
=44-	=44-
2.D/	.
4C/	.
4BB-X/	.
4AA/	.
1GG/	.
=45-	=45-
.	.
!LO:TX:b:t=P:problem:# below	!
2FF#X/	.
1GG	.
=46-	=46-
1D	.
1GG	.
=47-	=47-
1C	.
1GG	.
=48-	=48-
1GG	.
2G\	.
2F\	.
=49-	=49-
1E	.
!LO:SIC:v:t=custos D	!
1D	.
!!LO:LB:g=original
=50-	=50-
*M3/1	*
0D	#
!LO:TX:b:t=P:problem:# below	!
1C#X	.
=51-	=51-
0D	.
1BB	.
=52-	=52-
0C	.
1AA	.
=53-	=53-
*col	*
1GG	.
0BB	.
=54-	=54-
0E	.
*Xcol	*
1BB	.
=55-	=55-
0C	.
1AA	.
=56-	=56-
*col	*
1GG	.
0D	.
=57-	=57-
0.GG	.
*Xcol	*
=58-	=58-
1c	.
1B	.
1A	.
=59-	=59-
1.G	.
2A\	.
1B-X	.
=60-	=60-
0.A	.
=61-	=61-
0D	.
!LO:SIC:v:t=custos C	!
1BB	.
!!LO:LB:g=original
=62-	=62-
0.C	.
=63-	=63-
*col	*
1BB	.
0C	.
*Xcol	*
=64-	=64-
0.GG	.
=65-	=65-
0.GG	.
=66-	=66-
1C	.
1AA	.
1D	.
=67-	=67-
1.G	.
2F\	.
1E	.
=68-	=68-
0.D	.
=69-	=69-
1D	.
1BB	.
1AA	.
=70-	=70-
0.E	.
=71-	=71-
0A	.
1F	.
=72-	=72-
0D	.
1E	.
=73-	=73-
0.GG	.
=74-	=74-
0.C	.
=75-	=75-
0.GG	.
!!LO:LB:g=original
=76-	=76-
*M2/1	*
*met(c|)	*
2D/	.
2C/	.
1D	.
=77-	=77-
1GG	.
4c\	.
4A\	.
2G\	.
=78-	=78-
2E\	.
2D\	.
2E\	.
2F\	.
=79-	=79-
2G\	.
2A\	.
2D/	.
2E\	.
=80-	=80-
2D\	.
2E\	.
2F\	.
2G\	.
=81-	=81-
4A\	.
4AA/	.
2BB/	.
2C/	.
2D/	.
=82-	=82-
2BB/	.
2AA/	.
!LO:SIC:v:t=custos E	!
2BB/	.
!!LO:LB:g=original
2E\	.
=83-	=83-
2C/	.
2F\	.
2D/	.
2G\	.
=84-	=84-
2E\	.
4C/	.
4BB/	.
1C	.
=85-	=85-
2G\	.
4A\	.
4F\	.
4E\	.
4C/	.
4E\	.
4G\	.
=86-	=86-
4C/	.
4BB/	.
2GG/	.
4G\	.
4F\	.
4G\	.
4E\	.
=87-	=87-
2.D/	.
4C/	.
2BB/	.
2AA/	.
=88-	=88-
4E\	.
4C/	.
4AA/	.
!LO:SIC:v:t=custos C	!
4BB/	.
!!LO:LB:g=original
2.C/	.
4E\	.
=89-	=89-
4C/	.
4D/	.
2GG/	.
4c\	.
4A\	.
2G\	.
=90-	=90-
4c\	.
4A\	.
2.G\	.
4D\	.
4F\	.
4A\	.
=91-	=91-
4F\	.
4G\	.
4.C/	.
8D/	.
2.E\	.
4BB/	.
=92-	=92-
1C	.
1D	.
=93-	=93-
0GG;;	.
==	==
*-	*-
!!!AIN: 1 organ
!!!ENC: Kamil Watkowski
!!!END: 2021-07-09
